assets/icons/error-filled.svg

<?xml version="1.0" encoding="UTF-8" standalone="no"?>
<svg viewBox="0 0 24 24" height="24" width="24" version="1.1" id="svg4" sodipodi:docname="error-filled.svg" inkscape:version="1.1 (ce6663b3b7, 2021-05-25)"
   xmlns:inkscape="http://www.inkscape.org/namespaces/inkscape"
   xmlns:sodipodi="http://sodipodi.sourceforge.net/DTD/sodipodi-0.dtd"
   xmlns="http://www.w3.org/2000/svg"
   xmlns:svg="http://www.w3.org/2000/svg">
   <defs id="defs8" />
   <sodipodi:namedview id="namedview6" pagecolor="#ffffff" bordercolor="#666666" borderopacity="1.0" inkscape:pageshadow="2" inkscape:pageopacity="0.0" inkscape:pagecheckerboard="0" showgrid="false" width="24px" inkscape:zoom="28" inkscape:cx="9.5535714" inkscape:cy="9.6071429" inkscape:window-width="1920" inkscape:window-height="1043" inkscape:window-x="1920" inkscape:window-y="0" inkscape:window-maximized="1" inkscape:current-layer="svg4" />
   <path id="path845" style="fill:#808080;fill-opacity:1;fill-rule:evenodd;stroke-linecap:square;stroke-linejoin:round" d="M 12 2 A 10 10 0 0 0 2 12 A 10 10 0 0 0 12 22 A 10 10 0 0 0 22 12 A 10 10 0 0 0 12 2 z M 8.3535156 7.6464844 L 12 11.292969 L 15.646484 7.6464844 L 16.353516 8.3535156 L 12.707031 12 L 16.353516 15.646484 L 15.646484 16.353516 L 12 12.707031 L 8.3535156 16.353516 L 7.6464844 15.646484 L 11.292969 12 L 7.6464844 8.3535156 L 8.3535156 7.6464844 z " />
</svg>

<svg height="24" width="24" xmlns="http://www.w3.org/2000/svg"><path style="fill:gray;fill-opacity:1;stroke-linecap:square;stroke-linejoin:round" d="M12 2A10 10 0 0 0 2 12a10 10 0 0 0 10 10 10 10 0 0 0 10-10A10 10 0 0 0 12 2zM8.354 7.646 12 11.293l3.646-3.647.708.708L12.707 12l3.647 3.646-.708.708L12 12.707l-3.646 3.647-.708-.708L11.293 12 7.646 8.354l.708-.708z"/></svg>
